src/Assets/icons/download-web-outline.svg

<svg fill="currentColor" class="svg-icon" viewBox="0 0 32 32" version="1.1" xmlns="http://www.w3.org/2000/svg">
<title>download-window</title>
<path d="M0 26.016q0 2.496 1.76 4.224t4.256 1.76h4.992l-2.496-4h-2.496q-0.832 0-1.44-0.576t-0.576-1.408v-14.016h24v14.016q0 0.832-0.576 1.408t-1.408 0.576h-2.528l-2.496 4h5.024q2.464 0 4.224-1.76t1.76-4.224v-20q0-2.496-1.76-4.256t-4.224-1.76h-20q-2.496 0-4.256 1.76t-1.76 4.256v20zM4 10.016v-4q0-0.832 0.576-1.408t1.44-0.608h20q0.8 0 1.408 0.608t0.576 1.408v4h-24zM6.016 8h1.984v-1.984h-1.984v1.984zM10.016 24l5.984 8 6.016-8h-4v-8h-4v8h-4zM10.016 8h1.984v-1.984h-1.984v1.984zM14.016 8h12v-1.984h-12v1.984z"></path>
</svg>

<svg fill="currentColor" class="svg-icon" viewBox="0 0 32 32" xmlns="http://www.w3.org/2000/svg"><path d="M0 26.016q0 2.496 1.76 4.224T6.016 32h4.992l-2.496-4H6.016q-.832 0-1.44-.576T4 26.016V12h24v14.016q0 .832-.576 1.408T26.016 28h-2.528l-2.496 4h5.024q2.464 0 4.224-1.76T32 26.016v-20q0-2.496-1.76-4.256T26.016 0h-20Q3.52 0 1.76 1.76T0 6.016v20zm4-16v-4q0-.832.576-1.408T6.016 4h20q.8 0 1.408.608T28 6.016v4H4zM6.016 8H8V6.016H6.016V8zm4 16L16 32l6.016-8h-4v-8h-4v8h-4zm0-16H12V6.016h-1.984V8zm4 0h12V6.016h-12V8z"/></svg>
